16x16/panel/prime-intel.svg

<svg height="16" width="16" xmlns="http://www.w3.org/2000/svg"><path d="m1.777 1a1.76 1.76 0 0 0 -1.777 1.75v10.5c0 .97.792 1.75 1.777 1.75h12.446a1.76 1.76 0 0 0 1.777-1.75v-10.5c0-.97-.792-1.75-1.777-1.75zm-.777 4.125h.889v.875h-.889zm13 .875h.889v5c-.765-.068-.889-.339-.889-.834zm-7 .05h.889v1.075h.888v.875h-.887v1.25c0 .226.048.875.289.875h.6v.875h-.89c-.827 0-.889-1.024-.889-1.576zm-6 .95h.889v4c-.765-.066-.889-.724-.889-1.2zm1.666 0h2.223c.886-.01 1.334.693 1.334 1.2v2.8h-.889v-2.8c0-.212-.299-.4-.596-.4h-1.183v3.2h-.889zm9.197 0h.002c1.072.001 1.69.844 1.69 1.951v.45h-2.54c.042.448.348.775.878.775.447 0 .67-.121.927-.37l.62.579c-.4.381-.817.613-1.555.613-.964 0-1.885-.512-1.885-2.004 0-1.274.804-1.993 1.863-1.994zm-.088.8a.889.8 0 0 0 -.888.8h1.779a.889.8 0 0 0 -.89-.8z" fill="#bebebe"/></svg>

<svg height="16" width="16" xmlns="http://www.w3.org/2000/svg">
    <path d="M1.777 1A1.76 1.76 0 0 0 0 2.75v10.5C0 14.22.792 15 1.777 15h12.446A1.76 1.76 0 0 0 16 13.25V2.75C16 1.78 15.208 1 14.223 1zM1 5.125h.889V6H1zM14 6h.889v5c-.765-.068-.889-.339-.889-.834zm-7 .05h.889v1.075h.888V8H7.89v1.25c0 .226.048.875.289.875h.6V11h-.89C7.062 11 7 9.976 7 9.424zM1 7h.889v4C1.124 10.934 1 10.276 1 9.8zm1.666 0h2.223c.886-.01 1.334.693 1.334 1.2V11h-.889V8.2c0-.212-.299-.4-.596-.4H3.555V11h-.889zm9.197 0h.002c1.072.001 1.69.844 1.69 1.951v.45h-2.54c.042.448.348.775.878.775.447 0 .67-.121.927-.37l.62.579c-.4.381-.817.613-1.555.613-.964 0-1.885-.512-1.885-2.004 0-1.274.804-1.993 1.863-1.994zm-.088.8a.889.8 0 0 0-.888.8h1.779a.889.8 0 0 0-.89-.8z" fill="#bebebe"/>
</svg>
